packages/match-logos/mono/svg/atlassian.svg

<svg fill="none" height="20" viewBox="0 0 162 20" width="162" xmlns="http://www.w3.org/2000/svg" xmlns:xlink="http://www.w3.org/1999/xlink"><clipPath id="a"><path d="m0 0h161.129v20h-161.129z"/></clipPath><g clip-path="url(#a)" fill="#1f304c"><path d="m5.85706 9.11437c-.09267-.11495-.22624-.18957-.37272-.20821-.14647-.01865-.29448.02013-.41299.10821-.07223.05793-.13076.1311-.17143.21428l-4.89999717 9.68575c-.03425043.0674-.05476953.141-.06036753.2164-.005598.0755.0038367.1513.0277568.223.02392019.0718.0618497.1381.1115889.1951.049739.0569.110298.1035.178165.1369.089228.0213.1822.0213.271428 0h6.799996c.10719.0043.21324-.0233.30477-.0792.09153-.056.16444-.1378.20952-.2351.64676-1.7266.80359-3.5984.45316-5.4085s-1.19448-3.4882-2.43888-4.84863z"/><path d="m9.41439.314353c-1.20861 1.857037-1.9127 3.996837-2.04296 6.208707-.13026 2.21186.31782 4.41954 1.3001 6.40554l3.24287 6.5c.049.0974.1247.1787.2184.2343.0936.0557.2013.0835.3102.08h6.7428c.1516 0 .2969-.0602.4041-.1673.1071-.1072.1673-.2526.1673-.4041.0231-.0842.0231-.173 0-.2571l-9.3571-18.600047c-.0251-.070049-.0643-.134191-.1152-.188443-.051-.0542519-.1125-.0974556-.1808-.12692816-.0684-.02947254-.142-.04458464-.21641-.04439794-.07441.0001868-.14799.0156684-.21616.04548354-.1222.06868256-.21402.18090556-.25714.31428556z"/><path d="m88.5714 8.07154c0 2.39996 1.1143 4.28576 5.4572 5.14286 2.6.5429 3.1428.9714 3.1428 1.8286 0 .8571-.5428 1.4285-2.3714 1.4285-2.2093-.0292-4.3758-.6138-6.3-1.7v3.8c1.9314.9975 4.0842 1.489 6.2571 1.4286 4.5429 0 6.3429-2.0286 6.3429-5.0571zm12.5286 6.87146c0-2.8572-1.4286-4.1715-5.7143-5.08575-2.3428-.51428-2.8571-1.04285-2.8571-1.78571s.8428-1.32857 2.4-1.32857c1.9085.08601 3.7776.57275 5.4854 1.42857v-3.8c-1.6825-.7739-3.5193-1.15494-5.3711-1.11429-4.3572 0-6.4715 1.82858-6.4715 4.81429"/><path d="m146.957 3.50014v16.24286h3.471v-12.38571l1.458 3.28571 4.885 9.1h4.357v-16.24286h-3.457v10.48576l-1.314-3.0429-3.929-7.44286z"/><path d="m124.943 3.50014h-3.786v16.24286h3.786z"/><path d="m116.8 14.943c0-2.8571-1.514-4.1714-5.714-5.08572-2.357-.51428-2.857-1.04285-2.857-1.78571s.843-1.32857 2.4-1.32857c1.909.08258 3.778.56951 5.485 1.42857v-3.8c-1.677-.77417-3.51-1.15527-5.357-1.11429-4.314 0-6.471 1.82858-6.471 4.81429 0 2.40003 1.114 4.28573 5.471 5.14283 2.6.5429 3.143.9715 3.143 1.8286s-.557 1.4286-2.386 1.4286c-2.209-.0311-4.375-.6156-6.3-1.7v3.8c1.932.9975 4.085 1.489 6.258 1.4285 4.542 0 6.357-2.0285 6.357-5.0571"/><path d="m59.1287 3.50014v16.24286h7.7714l1.2286-3.5h-5.2v-12.74286z"/><path d="m43.7715 3.50014v3.51429h4.2v12.72857h3.8v-12.72857h4.5v-3.51429z"/><path d="m38.243 3.50014h-4.9857l-5.7143 16.24286h4.2857l.8-2.7286c1.9786.5715 4.0785.5715 6.0571 0l.8143 2.7286h4.2857zm-2.5286 10.58576c-.7013.0004-1.399-.1007-2.0714-.3l2.0714-7.1429 2.0857 7.1429c-.677.2005-1.3796.3016-2.0857.3z"/><path d="m80.3001 3.50014h-4.9857l-5.7143 16.24286h4.2857l.8-2.7286c1.9786.5715 4.0785.5715 6.0572 0l.8 2.7286h4.2857zm-2.4857 10.58576c-.7108.0019-1.4182-.0991-2.1-.3l2.0857-7.1429 2.0857 7.1429c-.6729.197-1.3703.298-2.0714.3z"/><path d="m138.571 3.50014h-4.985l-5.715 16.24286h4.286l.814-2.7286c1.979.5715 4.079.5715 6.057 0l.8 2.7286h4.286zm-2.485 10.58576c-.706.0016-1.409-.0995-2.086-.3l2.086-7.1429 2.071 7.1429c-.672.1993-1.37.3004-2.071.3z"/></g></svg>

<svg width="162" height="20" viewBox="0 0 162 20" fill="none" xmlns="http://www.w3.org/2000/svg">
<g clip-path="url(#clip0)">
<path d="M5.85706 9.11437C5.76439 8.99942 5.63082 8.9248 5.48434 8.90616C5.33787 8.88751 5.18986 8.92629 5.07135 9.01437C4.99912 9.0723 4.94059 9.14547 4.89992 9.22865L-7.71657e-05 18.9144C-0.0343276 18.9818 -0.0548467 19.0554 -0.0604447 19.1308C-0.0660427 19.2063 -0.056608 19.2821 -0.0326879 19.3538C-0.00876771 19.4256 0.0291618 19.4919 0.078901 19.5489C0.12864 19.6058 0.189199 19.6524 0.257066 19.6858C0.346294 19.7071 0.439266 19.7071 0.528494 19.6858H7.32849C7.43568 19.6901 7.54173 19.6625 7.63326 19.6066C7.72479 19.5506 7.7977 19.4688 7.84278 19.3715C8.48954 17.6449 8.64637 15.7731 8.29594 13.963C7.94551 12.1529 7.10146 10.4748 5.85706 9.11437Z" fill="#1F304C"/>
<path d="M9.41439 0.314353C8.20578 2.17139 7.50169 4.31119 7.37143 6.52306C7.24117 8.73492 7.68925 10.9426 8.67153 12.9286L11.9144 19.4286C11.9634 19.526 12.0391 19.6073 12.1328 19.6629C12.2264 19.7186 12.3341 19.7464 12.443 19.7429H19.1858C19.3374 19.7429 19.4827 19.6827 19.5899 19.5756C19.697 19.4684 19.7572 19.323 19.7572 19.1715C19.7803 19.0873 19.7803 18.9985 19.7572 18.9144L10.4001 0.314353C10.375 0.244304 10.3358 0.180162 10.2849 0.12591C10.2339 0.0716581 10.1724 0.0284544 10.1041 -0.00101816C10.0357 -0.0304907 9.9621 -0.0456028 9.88769 -0.0454161C9.81328 -0.0452293 9.7397 -0.0297477 9.67153 6.74352e-05C9.54933 0.06875 9.45751 0.180973 9.41439 0.314353Z" fill="#1F304C"/>
<path d="M88.5714 8.07154C88.5714 10.4715 89.6857 12.3573 94.0286 13.2144C96.6286 13.7573 97.1714 14.1858 97.1714 15.043C97.1714 15.9001 96.6286 16.4715 94.8 16.4715C92.5907 16.4423 90.4242 15.8577 88.5 14.7715V18.5715C90.4314 19.569 92.5842 20.0605 94.7571 20.0001C99.3 20.0001 101.1 17.9715 101.1 14.943L88.5714 8.07154ZM101.1 14.943C101.1 12.0858 99.6714 10.7715 95.3857 9.85725C93.0429 9.34297 92.5286 8.8144 92.5286 8.07154C92.5286 7.32868 93.3714 6.74297 94.9286 6.74297C96.8371 6.82898 98.7062 7.31572 100.414 8.17154V4.37154C98.7315 3.59764 96.8947 3.2166 95.0429 3.25725C90.6857 3.25725 88.5714 5.08583 88.5714 8.07154" fill="#1F304C"/>
<path d="M146.957 3.50014V19.743H150.428V7.35729L151.886 10.643L156.771 19.743H161.128V3.50014H157.671V13.9859L156.357 10.943L152.428 3.50014H146.957Z" fill="#1F304C"/>
<path d="M124.943 3.50014H121.157V19.743H124.943V3.50014Z" fill="#1F304C"/>
<path d="M116.8 14.943C116.8 12.0859 115.286 10.7716 111.086 9.85728C108.729 9.343 108.229 8.81443 108.229 8.07157C108.229 7.32871 109.072 6.743 110.629 6.743C112.538 6.82558 114.407 7.31251 116.114 8.17157V4.37157C114.437 3.5974 112.604 3.2163 110.757 3.25728C106.443 3.25728 104.286 5.08586 104.286 8.07157C104.286 10.4716 105.4 12.3573 109.757 13.2144C112.357 13.7573 112.9 14.1859 112.9 15.043C112.9 15.9001 112.343 16.4716 110.514 16.4716C108.305 16.4405 106.139 15.856 104.214 14.7716V18.5716C106.146 19.5691 108.299 20.0606 110.472 20.0001C115.014 20.0001 116.829 17.9716 116.829 14.943" fill="#1F304C"/>
<path d="M59.1287 3.50014V19.743H66.9001L68.1287 16.243H62.9287V3.50014H59.1287Z" fill="#1F304C"/>
<path d="M43.7715 3.50014V7.01443H47.9715V19.743H51.7715V7.01443H56.2715V3.50014H43.7715Z" fill="#1F304C"/>
<path d="M38.243 3.50014H33.2573L27.543 19.743H31.8287L32.6287 17.0144C34.6073 17.5859 36.7072 17.5859 38.6858 17.0144L39.5001 19.743H43.7858L38.243 3.50014ZM35.7144 14.0859C35.0131 14.0863 34.3154 13.9852 33.643 13.7859L35.7144 6.643L37.8001 13.7859C37.1231 13.9864 36.4205 14.0875 35.7144 14.0859Z" fill="#1F304C"/>
<path d="M80.3001 3.50014H75.3144L69.6001 19.743H73.8858L74.6858 17.0144C76.6644 17.5859 78.7643 17.5859 80.743 17.0144L81.543 19.743H85.8287L80.3001 3.50014ZM77.8144 14.0859C77.1036 14.0878 76.3962 13.9868 75.7144 13.7859L77.8001 6.643L79.8858 13.7859C79.2129 13.9829 78.5155 14.0839 77.8144 14.0859Z" fill="#1F304C"/>
<path d="M138.571 3.50014H133.586L127.871 19.743H132.157L132.971 17.0144C134.95 17.5859 137.05 17.5859 139.028 17.0144L139.828 19.743H144.114L138.571 3.50014ZM136.086 14.0859C135.38 14.0875 134.677 13.9864 134 13.7859L136.086 6.643L138.157 13.7859C137.485 13.9852 136.787 14.0863 136.086 14.0859Z" fill="#1F304C"/>
</g>
<defs>
<clipPath id="clip0">
<rect width="161.129" height="20" fill="white"/>
</clipPath>
</defs>
</svg>
